X:1

T:Robert Menzies

M:C|

L:1/8

R:Strathspey

C:”D.Mc.K.”

B:Stewart-Robertson – The Athole Collection   (1884)

Z:AK/Fiddler’s Companion

K:A

f| e>Ac>A cd/e/ c>A | e>Ac>A (3cde (3fga | e>Ac>A cd/e/ c>A | e>ac>a b>Bd :|

f| e>ae>c a>ce>c | e>ae>c f>Bd>f | e>ae>c A/B/c/d/ e>c | e>ac>a b>Bd>f |

e>ae>c a>ce>c | A>ce>c f>Bd>f | (3efg (3agf (3edc (3ecA | E>Ac>e b>Bd ||

                       

ROBERT RUSSELL OF PILMUIR. Scottish, Reel. E Minor. Standard tuning. AB. Composed by Alexander Walker. Walker (A Collection of Strathspeys, Reels, Marches, &c.), 1866; No. 131, pg. 45.

                       

ROBERT STUBBERT. Canadian, Reel. Canada; Cape Breton, Prince Edward Island. D Major. Standard tuning. AABB. Composed by fiddler Jerry Holland (Inverness, Cape Breton) in honor of Northside, Cape Breton, fiddler Robert Stubbert (b. 1923), father of fiddler Brenda Stubbert. Source for notated version: Eddy Arsenault (b. 1921, St. Chrysostom, East Prince County, Prince Edward Island) [Perlman]. Cranford (Jerry Holland’s), 1995; No. 119, pg. 34. Perlman (The Fiddle Music of Prince Edward Island), 1996; pg. 75. Flying Fish FF 70572, Frank Ferrel – “Yankee Dreams: Wicked Good Fiddling from New England” (1991).

                       

ROBERT THE MINNOW. Scottish. Composed by Scots fiddler Johnny Cunningham. Green Linnet SIF 1076, Relativity – “Gathering Place.”

                       

ROBERT WILLIS. Canadian, Strathspey. Canada, Cape Breton. F Major. Standard tuning. AB. Composed by Cape Breton fiddler and composer Dan R. MacDonald (1911-1976). Cameron (Trip to Windsor), 1994; pg. 36.

                       

ROBERTS, THE. A couple dance. Folkways FW8827, Arbuckle, Mikkelson & Clifton - "Old Time Couple Dances" (1961).

                       

ROBERTS’S SERENADE. Olt-Time. A Major. AEae tuning. A piece by fiddler Robert Sykes (d. mid-1990's) of Surrey County, North Carolina. Rounder 0421, Bruce Molsky - “Big Hoedown” (1997).

                       

ROBERTSON COUNTY. Old‑Time, Breakdown. USA, Tennessee. G Major. Standard tuning. AABBBB. Does not seem to be the same as the similarly titled "Robinson County." It may have been an original tune of Paul Warmack and his Gully Jumpers, a popular late 1920’s Nashville string band, though it is related to "Throw the Old Cow Over the Fence." The group featured Tennessee fiddler Charlie Arrington, who accompanied Uncle Dave Macon in 1936 and 1937 in performances and on recordings. Robertson County is in Tennessee, just north of Nashville. Source for notated version: Charlie Arrington with Paul Warmack and His Gully Jumpers [Phillips]. Phillips (Traditional American Fiddle Tunes, vol. 1), 1994; pg. 200. County 541, Paul Warmack and his Gully Jumpers ‑ "Nashville: the Early String Bands, vol. 1."

                       


ROBERTSON'S HORNPIPE. Scottish, Hornpipe. B Flat Major. Standard tuning. AABB. Kerr (Merry Melodies), vol. 2; No. 334, pg. 37. Stewart-Robertson (The Athole Collection), 1884; pg. 300.

